X:1
T:Title
%%score { ( 1 3 4 ) | ( 2 5 ) }
L:1/8
Q:1/4=80
M:2/4
K:F
V:1 treble nm="Grand Piano"
V:3 treble 
V:4 treble 
V:2 bass 
V:5 bass 
V:1
 cA GF | AF DC | FA [CGB][CFA] | z2 G2 | cA GF | AF DC | z2 z A |[M:7/16] [CEA]>[B,EG][A,CF]3/2 | %8
w: J.~S.~Fearis * * *||||||||
[M:1/8] A |[M:2/4] c2 z2 | d2 z2 | [Fc][CFA] [CGB][CFA] | [FA]2 G2 | cA GF | AF DC | z2 z A | %16
w: ||||||||
 [CEA]>[B,EG] [A,CF]2 |] %17
w: |
V:2
 [F,A,F][F,CF] [F,B,C][F,A,C] | [F,CF][F,A,C] [F,B,][F,A,] | [F,A,C][F,CF] E,F, | z2 E2 | %4
 [F,A,F][F,CF] [F,B,C][F,A,C] | [F,CF][F,A,C] [F,B,][F,A,] | [B,,F,][A,,F,] [D,F,B,][F,C]/A,/ | %7
[M:7/16] C,>C,F,3/2 |[M:1/8] z |[M:2/4] [F,A,F][F,A,] [F,CF][F,A,F] | %10
 [B,,B,][B,,B,] [D,B,][B,,B,] | [F,A,]F, E,F, | z2 E2 | [F,A,F][F,CF] [F,B,C][F,A,C] | %14
 [F,CF][F,A,C] [F,B,][F,A,] | [B,,F,B,][A,,F,] [D,F,B,][F,C]/A,/ | C,>C, F,2 |] %17
V:3
 x4 | x4 | x4 | [FA]2 z B, | x4 | x4 | [CE][CF] .B>F |[M:7/16] x7/2 |[M:1/8] x |[M:2/4] z F Ac | %10
 FF [FB][Fd] | x4 | C3 B, | x4 | x4 | D[CF] .B>F | x4 |] %17
V:4
 x4 | x4 | x4 | C4 | x4 | x4 | x4 |[M:7/16] x7/2 |[M:1/8] x |[M:2/4] x4 | x4 | x4 | x4 | x4 | x4 | %15
 x4 | x4 |] %17
V:5
 x4 | x4 | x4 | C,4 | x4 | x4 | z2 z C, |[M:7/16] x7/2 |[M:1/8] x |[M:2/4] x4 | x4 | x4 | C,4 | %13
 x4 | x4 | z2 z C, | x4 |] %17

